X: 1
T: JOHNNY HAND'S -- JIG
C: J.H.
B: Ryan's Mammoth Collection of Fiddle Tunes
R: jig
M: 6/8
L: 1/8
Z: Contributed 20010706205848 by John Chambers jmchambers:rcn.net
K: G
((3uD/E/F/) \
| G2g edc | Bce dBG | EAA ABA | EAA ABA \
| G2g edc | Bce dBG | DGG {A}GFG | DEF g2 :|
|: ud \
| g2g agf | eag fed | gfg eag | fef g2a \
| bag agf | gfg e2d | Bce dBG | AEF G2 :|
